assets/images/icons/reservoir-blue.svg

<svg width="16" height="13" viewBox="0 0 16 13" fill="none" xmlns="http://www.w3.org/2000/svg">
<path fill-rule="evenodd" clip-rule="evenodd" d="M3.50746 0.780102C4.98401 0.410966 6.8554 0.000244141 8 0.000244141C9.1446 0.000244141 11.016 0.410966 12.4925 0.780102C13.2545 0.970603 13.9518 1.16079 14.4582 1.30322C14.7117 1.3745 14.9179 1.43399 15.0612 1.47579C15.1329 1.4967 15.1889 1.51319 15.2272 1.52454L15.2713 1.53761L15.2872 1.54237C15.2873 1.5424 15.2873 1.54242 15 2.50024L15.2872 1.54237C15.7695 1.68707 16.0692 2.16792 15.9864 2.66464L14.4308 11.998C14.3505 12.4802 13.9333 12.8336 13.4444 12.8336H2.55555C2.06671 12.8336 1.64952 12.4802 1.56916 11.998L0.0136044 2.66464C-0.0691835 2.16792 0.230309 1.68712 0.71265 1.54242L0.999998 2.50024C0.71265 1.54242 0.712561 1.54244 0.71265 1.54242L0.728746 1.53761L0.772765 1.52454C0.811093 1.51319 0.867073 1.4967 0.938748 1.47579C1.08207 1.43399 1.2883 1.3745 1.54175 1.30322C2.04817 1.16079 2.74546 0.970603 3.50746 0.780102ZM2.18046 3.50024L2.53549 5.63042C3.52052 5.34625 4.81824 5.39944 6.22136 6.33486C6.85023 6.7541 7.49752 6.76701 8.11894 6.57914C8.76914 6.38257 9.33107 5.97718 9.62622 5.68203C10.1149 5.19339 11.0051 4.58232 12.0758 4.55339C12.6058 4.53906 13.1133 4.66712 13.5792 4.94242L13.8195 3.50024H2.18046ZM13.1793 7.34185C12.7397 6.60682 12.3403 6.54697 12.1298 6.55266C11.7615 6.56261 11.3296 6.8071 11.0404 7.09624C10.5578 7.57886 9.71974 8.18458 8.69772 8.49357C7.64692 8.81125 6.34977 8.82416 5.11196 7.99896C4.10676 7.32883 3.32162 7.43169 2.86857 7.62894L3.40268 10.8336H12.5973L13.1793 7.34185Z" fill="#0070C7"/>
</svg>

<svg width="16" height="13" fill="none" xmlns="http://www.w3.org/2000/svg"><path fill-rule="evenodd" clip-rule="evenodd" d="M3.507.78C4.984.411 6.855 0 8 0c1.145 0 3.016.411 4.492.78a70.889 70.889 0 012.735.745l.044.013.016.004L15 2.5l.287-.958a1 1 0 01.7 1.123l-1.556 9.333a1 1 0 01-.987.836H2.556a1 1 0 01-.987-.836L.014 2.665a1 1 0 01.699-1.123L1 2.5l-.287-.958.016-.004.044-.013a43.395 43.395 0 01.769-.222A70.91 70.91 0 013.507.78zM2.18 3.5l.355 2.13c.986-.284 2.283-.23 3.686.705.63.42 1.277.432 1.898.244a3.857 3.857 0 001.507-.897c.489-.489 1.38-1.1 2.45-1.129a2.767 2.767 0 011.503.39l.24-1.443H2.18zm11 3.842c-.44-.735-.84-.795-1.05-.79-.369.01-.8.255-1.09.544a5.85 5.85 0 01-2.342 1.398c-1.051.317-2.348.33-3.586-.495-1.005-.67-1.79-.567-2.243-.37l.534 3.205h9.194l.582-3.492z" fill="#0070C7"/></svg>
